X: 50
T:Trip To Windsor
R:Reel
C:Dan R. Macdonald (1912-76)
Z:Added by Alf Warnock
M:4/4
L:1/8
K:A
|EA2A Acea|f2fe fefg|agfa feaf|ecAc BAFA||[1 ecBc A3A:|[2 ecBc A2cz/2d/2|
|:efec e/2f/2gae|faec BAcB|AFEC EFAB|cABc BAFE|
A,2CE FECE|A2cB Acea|fefg afed|[1 cABc A2cd:|[2 cABc A2c2|]

